X: 672
T: Irish Washerwoman, The
B: jims roots
B: nick
M:6/8
L:1/8
R: jig
Q: 3/8=100
K:Gmaj
V:1 
dc|:"G"BGG DGG|BGB dcB|"Am"cAA EAA|cAc "C"edc|
"G"BGG DGG|BGB dcB|"C"cBc "D"Adc|[1 "G"BGG Gdc:| [2 "G"BGG "D"Gga||
|:"G"bgg dgg|bgb bag|"D"aff dff|afa agf|
"Am7"egg "G"dgg|"C"cgg "G"Bgg|"Am7"cBc "D"Adc|[1 "G"BGG "D"Gga:|[2 "G"BGG G3||
% abcbook-tune_id 6298c25d9c46a237a27ed996


% abcbook-boost 0
% abcbook-tablature 
% abcbook-transpose 
% abcbook-lastupdated 1665491342851
% abcbook-soundfonts 
% abcbook-repeats 1
% Luba Yairi
% <a href="http://thesession.org/tunes/92#setting32199" rel="nofollow">http://thesession.org/tunes/92#setting32199</a>

